X:12366
T:Old Pigeon on the Gate, The
M:C|
L:1/8
R:reel
Z:This tune is also played in A. Picked it up from the Dervish lads in
Z:Sligo.
K:A
A2cA eAcA|G2BG eGBG|A2cA eAcA|1 dcBA GABG:|2 dcBA GABd||
ce~e2 cA~A2|Bcde fe~e2|ceae cABc|dcBA GABd|
ceae cA~A2|Bcde fe~e2|ceae cABc|dcBA GABG||


